X: 43415
T: Y Daith I Gonwy
R: jig
M: 6/8
K: Dmajor
FAA BAA|def dAA|FAA BAA|efg fed|
ade fga|bgg aff|agf fed|Bdd d3:|
f>gf d>ed|e>fe A>BA|d>ed fed|c2A A2e|
f>gf fed|e>fe ecA|def Bcd|Aaf d3:|

